X:485
T: "Falscher Sinn"
N: Z1165
O: Europa, Mitteleuropa, Deutschland, Pfalz
R: Liebes - Lied, Abschieds - Lied
M: 2/4
L: 1/16
K: C
EF | G3cG2GF | E2E2D2
D2 | E2G2^F2A2 | G4z2
EG | c2B2A2G2 | A4G4 | F2GFE2
c2 | A2GFE2D2 | C4z2

